X:1
T:Title
%%score { 1 | 2 }
L:1/8
M:6/4
K:Ab
V:1 treble nm="Grand Piano"
V:2 bass 
V:1
 z6 z4[Q:1/4=108] [CE]2 | [Ec]4 [=D_c][E=c] [CA]4 [EA]2 | [FA]4 [EG][DF] [CE]4 [CE]2 | %3
 [CA]3 [CA] [CA]2 c2 B2 A2 | B6- B4 E2 | [Ec]4 [=D_c][E=c] [CA]4 [Ec]2 | B3 A F2 [CE]4 [CE]2 | %7
 [EA]3 [EA] [Fd]2 c2 A2 B2 |[M:5/4] [CA]2- [CA]2- [CA]6 |[M:1/4] A2 |[M:6/4] B4 BB [Ge]4 [GB]2 | %11
 c3 c d2 c4 c2 | c3 c c2 [A=d]2 [Ac]2 [Ad]2 | [Ge]6- [Ge]4 [Ed]2 | [Ec]3 [DB] [CA]2 [CE]4 [CE]2 | %15
[M:7/4] [DF]3 [DF] [Fd]2 [Ec]6 [Ec]2 | %16
[M:6/4] B3 c d2 c2 A2 B2[Q:1/4=106][Q:1/4=105][Q:1/4=103][Q:1/4=102][Q:1/4=100][Q:1/4=98][Q:1/4=97][Q:1/4=95][Q:1/4=94][Q:1/4=92][Q:1/4=91] | %17
[M:5/4] [CEA]2- [CEA]2- [CEA]6[Q:1/4=89][Q:1/4=87][Q:1/4=86][Q:1/4=84][Q:1/4=83] |] %18
V:2
 z6 z4 [A,,A,]2 | [A,,A,]4 [A,,A,][A,,A,] [A,,A,]4 [C,A,]2 | %2
 [D,A,]4 [D,A,][D,A,] [A,,A,]4 [A,,A,]2 | [A,,E,]3 [A,,E,] [A,,E,]2 [A,E]2 [G,B,E]2 [F,B,=D]2 | %4
 [E,G,E]6- [E,G,E]4 [E,G,]2 | [A,,A,]4 [A,,A,][A,,A,] [A,,E,]4 [A,,A,]2 | %6
 [D,F,D]3 [D,F,D] [D,A,D]2 [A,,A,]4 [A,,A,]2 | [C,A,]3 [C,A,] [D,A,]2 [E,A,E]2 [E,A,C]2 [E,G,D]2 | %8
[M:5/4] [A,,A,]2- [A,,A,]2- [A,,A,]6 |[M:1/4] [A,C]2 | %10
[M:6/4] [E,G,E]4 [E,G,E][E,G,E] [E,B,]4 [E,E]2 | [A,EA]3 [A,EA] [A,FA]2 [A,EA]4 [A,E]2 | %12
 [A,E]3 [A,E] [A,E]2 [F,B,]2 [F,B,]2 [F,B,]2 | [E,B,]6- [E,B,]4 [E,G,]2 | %14
 [A,,A,]3 [A,,E,] [A,,E,]2 [A,,A,]4 [A,,A,]2 |[M:7/4] [D,A,]3 [D,A,] [D,A,]2 [A,,A,]6 [A,,A,]2 | %16
[M:6/4] [E,G,E]3 [E,A,E] [E,B,E]2 [E,A,E]2 [E,CE]2 [E,DE]2 |[M:5/4] A,,2- A,,2- A,,6 |] %18

